_inc/images/systems/logos/gba.svg

<?xml version="1.0" encoding="UTF-8"?>
<svg width="633px" height="75px" viewBox="0 0 633 75" version="1.1" xmlns="http://www.w3.org/2000/svg" xmlns:xlink="http://www.w3.org/1999/xlink">
    <title>gba</title>
    <defs>
        <polygon id="path-1" points="5.54764568e-14 0 632 0 632 74.323 0 74.323"></polygon>
    </defs>
    <g id="Page-1" stroke="none" stroke-width="1" fill="none" fill-rule="evenodd" opacity="0.78">
        <g id="Nintendo-Gameboy-Advance" transform="translate(-4.000000, -23.000000)">
            <g id="gba" transform="translate(4.446544, 23.009784)">
                <mask id="mask-2" fill="white">
                    <use xlink:href="#path-1"></use>
                </mask>
                <g id="Path"></g>
                <g id="Group" mask="url(#mask-2)">
                    <g transform="translate(0.000676, 0.000303)">
                        <path d="M330.099324,9.2456974 L334.983324,1.4126974 L263.462324,1.4126974 C257.808233,1.47504809 252.287846,3.14017996 247.542324,6.2146974 L241.815324,10.4266974 C239.288324,7.3946974 236.843324,5.2866974 234.404324,3.8536974 C231.369324,2.1696974 228.003324,1.4126974 224.125324,1.4126974 L97.858324,1.4126974 L93.732324,13.9666974 L91.709324,1.4126974 L64.081324,1.4126974 L63.071324,3.7726974 L60.459324,2.8476974 C45.886324,-2.1243026 31.903324,-0.606302602 18.680324,7.5646974 C11.941324,11.8616974 6.88732399,17.2506974 3.77032399,23.8226974 C0.564323994,30.3916974 -0.526676006,37.7166974 0.230323994,46.0556974 C0.734323994,51.0246974 2.50432399,55.6596974 5.53632399,59.8716974 C8.56832399,64.0836974 12.443324,67.4526974 17.245324,69.8946974 C24.236324,73.5166974 31.814324,74.6116974 39.733324,73.3466974 L64.330324,73.3466974 L70.479324,59.7046974 L72.754324,73.3466974 L220.503324,73.1796974 C223.702324,73.1796974 226.905324,72.4186974 230.189324,70.9866974 C233.388324,69.5536974 236.168324,67.5346974 238.698324,65.0046974 C242.825324,69.3866974 247.712324,72.3366974 253.438324,73.5166974 C261.187324,75.3686974 268.683324,74.0216974 275.760324,69.5536974 L276.688324,68.8816974 L276.016324,73.3466974 L306.086324,73.3466974 L307.418324,65.4296974 C309.188324,65.1776974 387.044324,65.4336974 387.044324,65.4336974 C399.595324,65.4336974 408.858324,62.2316974 414.502324,55.7486974 L420.569324,65.4336974 L508.089324,65.4336974 L508.089324,53.1326974 L523.842324,65.4336974 L631.999324,65.4336974 L631.999324,9.3316974 L514.832324,9.3316974 L514.832324,21.4626974 L499.331324,9.3316974 L436.998324,9.3316974 L429.331324,23.9006974 L420.825324,9.2456974 L330.099324,9.2456974 Z" id="Path" fill="#4B367C"></path>
                        <path d="M346.193324,18.5976974 L336.842324,18.5976974 L314.772324,55.7516974 L341.054324,55.7516974 L341.054324,47.4916974 L330.355324,47.4916974 L341.054324,28.2866974 L356.554324,55.7516974 L368.518324,55.7516974 L368.518324,55.6666974 L387.215324,55.6666974 C403.387324,55.6666974 411.473324,49.4316974 411.473324,37.0486974 C411.473324,34.9446974 411.221324,32.9216974 410.634324,31.0696974 L425.542324,55.6666974 L432.704324,55.6666974 L454.180324,18.6006974 L442.809324,18.6006974 L429.419324,42.8636974 L415.266324,18.6006974 L403.056324,18.6006974 L406.419324,24.1606974 C402.463324,20.4566974 396.822324,18.6006974 389.407324,18.6006974 L364.808324,18.6006974 L364.808324,49.4316974 L346.193324,18.5976974 Z M375.421324,27.0216974 L389.483324,27.0216974 C396.815324,27.0216974 400.519324,30.2206974 400.519324,36.6256974 C400.519324,40.4966974 399.339324,43.2796974 397.149324,44.7936974 C395.045324,46.3116974 391.000324,47.0716974 385.359324,47.0716974 L375.421324,47.0716974 L375.421324,27.0216974 Z M470.018324,18.5976974 L460.578324,18.5976974 L438.597324,55.7486974 L449.715324,55.7486974 L449.715324,55.6626974 L464.882324,55.6626974 L464.882324,47.4026974 L454.265324,47.4026974 L464.796324,28.2836974 L480.294324,55.7486974 L492.425324,55.7486974 L492.425324,55.6626974 L498.574324,55.6626974 L498.574324,33.2556974 L526.622324,55.6626974 L533.862324,55.6626974 L533.862324,18.5976974 L524.180324,18.5976974 L524.180324,40.7486974 L495.876324,18.5976974 L488.636324,18.5976974 L488.636324,49.4286974 L470.018324,18.5976974 Z M539.425324,20.7016974 C537.907324,22.0486974 537.153324,24.4906974 537.153324,27.9456974 L537.153324,46.3076974 C537.153324,49.8446974 537.907324,52.2896974 539.425324,53.6336974 C540.857324,54.9846974 543.470324,55.6596974 547.259324,55.6596974 L569.072324,55.6596974 C572.861324,55.6596974 575.559324,54.9876974 576.991324,53.6336974 C578.424324,52.2866974 579.263324,49.8446974 579.263324,46.3076974 L579.263324,41.1716974 L568.571324,40.9976974 L568.571324,46.7276974 L547.849324,46.7276974 L547.849324,27.2706974 L568.571324,27.2706974 L568.571324,32.3216974 L579.263324,32.3216974 L579.263324,27.9426974 C579.263324,24.3206974 578.424324,21.8786974 576.991324,20.6986974 C575.559324,19.2666974 573.035324,18.5906974 569.072324,18.5906974 L547.259324,18.5906974 C543.470324,18.5976974 540.857324,19.2696974 539.425324,20.7016974 Z M593.508324,32.3246974 L593.508324,27.0216974 L622.395324,27.0216974 L622.395324,18.5976974 L582.810324,18.5976974 L582.810324,55.6626974 L622.904324,55.6626974 L622.904324,47.0686974 L593.508324,47.0686974 L593.508324,40.4926974 L610.435324,40.4926974 L610.435324,32.3246974 L593.508324,32.3246974 L593.508324,32.3246974 Z M57.171324,11.6066974 C45.548324,7.3946974 34.345324,8.7416974 23.564324,15.3956974 C12.951324,21.8786974 8.31632399,31.8206974 9.57832399,44.7906974 C9.91532399,48.5866974 11.348324,52.0376974 13.790324,55.0696974 C16.232324,58.1086974 19.349324,60.2906974 23.056324,61.9756974 C26.845324,63.6606974 30.805324,64.3326974 35.017324,64.0796974 C39.652324,63.8276974 43.864324,62.4806974 47.990324,60.2086974 L48.413324,59.9566974 L46.810324,63.4936974 L58.099324,63.4936974 L65.343324,47.7406974 L77.812324,47.7406974 L80.588324,63.4936974 L99.035324,63.4936974 L108.469324,34.0096974 L114.536324,63.4936974 L121.862324,63.4936974 L136.012324,30.8106974 L137.444324,63.4936974 L148.228324,63.4936974 L146.039324,10.6786974 L132.894324,10.6786974 L120.600324,39.5686974 L115.290324,10.6786974 L104.509324,10.6786974 L90.611324,53.3816974 L83.449324,10.6786974 L70.141324,10.6786974 L49.753324,56.7546974 L52.704324,37.4646974 L32.571324,37.4646974 L31.054324,47.4026974 L39.478324,47.4026974 L38.635324,52.7126974 L29.788324,53.3066974 C26.252324,52.3816974 23.725324,50.5306974 22.040324,47.5766974 C20.607324,44.7936974 19.932324,41.9356974 20.270324,38.7296974 C20.693324,34.2656974 22.882324,30.2206974 27.012324,26.5986974 C30.716324,23.3146974 35.518324,21.4626974 41.248324,20.7016974 C46.722324,19.8596974 51.524324,20.4496974 55.568324,22.2166974 L57.171324,11.6066974 Z M76.209324,37.4646974 L69.555324,37.4646974 L74.186324,27.2736974 L76.209324,37.4646974 Z M187.653324,10.6786974 L157.580324,10.6786974 L149.156324,63.4966974 L179.400324,63.4966974 L181.334324,52.2896974 L162.296324,52.2896974 L163.814324,42.8596974 L180.324324,42.8596974 L182.094324,31.4856974 L165.414324,31.4856974 L166.846324,22.0486974 L185.883324,22.0486974 L187.653324,10.6786974 L187.653324,10.6786974 Z M320.659324,10.6786974 L308.023324,10.6786974 L297.243324,27.9456974 L290.504324,10.6786974 L278.035324,10.6786974 L290.927324,38.5626974 L286.882324,63.4966974 L297.833324,63.4966974 L301.117324,41.5056974 L320.659324,10.6786974 Z" id="Shape" fill="#FFFFFF"></path>
                        <path d="M267.677324,11.1836974 C261.528324,9.7506974 255.884324,11.1836974 250.410324,15.3956974 C244.936324,19.4396974 241.396324,25.2516974 239.544324,32.5776974 C237.945324,39.8216974 238.702324,46.6456974 241.652324,52.7096974 C244.769324,58.9436974 249.233324,62.7326974 255.382324,64.0796974 C261.446324,65.5126974 267.091324,64.0796974 272.564324,59.9566974 C278.038324,55.7486974 281.660324,49.9336974 283.348324,42.6046974 C285.033324,35.3566974 284.273324,28.6176974 281.244324,22.4686974 C278.205324,16.3226974 273.656324,12.5336974 267.677324,11.1836974 L267.677324,11.1836974 Z M266.750324,21.7146974 C269.700324,22.8946974 271.552324,25.5896974 272.561324,29.5486974 C273.571324,33.5936974 273.322324,37.8056974 271.886324,42.2666974 C270.457324,46.6486974 268.097324,49.9336974 265.065324,52.0376974 C261.948324,54.3086974 259.001324,54.7356974 256.218324,53.4696974 C253.271324,52.2896974 251.331324,49.5926974 250.321324,45.6356974 C249.226324,41.5056974 249.646324,37.2976974 251.078324,32.9146974 C252.507324,28.6176974 254.867324,25.2516974 257.899324,22.9766974 C260.853324,20.8726974 263.885324,20.3676974 266.750324,21.7146974 Z M230.697324,13.0386974 C228.590324,11.6916974 226.485324,11.0166974 224.463324,11.0166974 L204.245324,11.0166974 L195.907324,63.4966974 L220.166324,63.4966974 C222.778324,63.4966974 225.476324,62.6576974 228.252324,60.9726974 C230.889444,59.3845461 233.13555,57.2235408 234.824324,54.6496974 C236.594324,51.6996974 237.266324,48.8416974 236.932324,45.8036974 C236.594324,42.5186974 234.824324,39.4016974 231.710324,36.4546974 C237.859324,30.1356974 239.292324,24.1566974 236.089324,18.4276974 C234.760203,16.2170826 232.908678,14.3665879 230.697324,13.0386974 L230.697324,13.0386974 Z M211.912324,31.9056974 L213.597324,22.1346974 L220.674324,22.1346974 C222.444324,22.1346974 223.791324,22.6386974 224.719324,23.6486974 C225.479324,24.5766974 225.813324,25.6706974 225.643324,27.0186974 C225.476324,28.3686974 224.800324,29.4596974 223.791324,30.3876974 C222.611324,31.3976974 221.179324,31.9056974 219.494324,31.9056974 L211.912324,31.9056974 L224.129324,44.3706974 C225.138324,45.3836974 225.643324,46.6486974 225.561324,48.0816974 C225.479324,49.5136974 224.800324,50.6936974 223.539324,51.6996974 C222.277324,52.7126974 220.507324,53.3066974 218.065324,53.3066974 L208.546324,53.3066974 L210.231324,42.6896974 L219.327324,42.6896974 C221.349324,42.6896974 222.949324,43.2826974 224.129324,44.3746974 L211.912324,31.9056974 L211.912324,31.9056974 Z" id="Shape" fill="#FFFFFF"></path>
                    </g>
                </g>
            </g>
        </g>
    </g>
</svg>

<svg viewBox="0 0 633 75" xmlns="http://www.w3.org/2000/svg" xml:space="preserve" style="fill-rule:evenodd;clip-rule:evenodd;stroke-linejoin:round;stroke-miterlimit:2">
    <clipPath id="a">
        <path d="M.036.032h632v74.323h-632z"/>
    </clipPath>
    <g clip-path="url(#a)">
        <path d="m330.136 9.278 4.884-7.833h-71.521a29.885 29.885 0 0 0-15.92 4.802l-5.727 4.212c-2.527-3.032-4.972-5.14-7.411-6.573-3.035-1.684-6.401-2.441-10.279-2.441H97.895l-4.126 12.554-2.023-12.554H64.118l-1.01 2.36-2.612-.925C45.923-2.092 31.94-.574 18.717 7.597c-6.739 4.297-11.793 9.686-14.91 16.258C.601 30.424-.49 37.749.267 46.088c.504 4.969 2.274 9.604 5.306 13.816 3.032 4.212 6.907 7.581 11.709 10.023 6.991 3.622 14.569 4.717 22.488 3.452h24.597l6.149-13.642 2.275 13.642 147.749-.167c3.199 0 6.402-.761 9.686-2.193 3.199-1.433 5.979-3.452 8.509-5.982 4.127 4.382 9.014 7.332 14.74 8.512 7.749 1.852 15.245.505 22.322-3.963l.928-.672-.672 4.465h30.07l1.332-7.917c1.77-.252 79.626.004 79.626.004 12.551 0 21.814-3.202 27.458-9.685l6.067 9.685h87.52V53.165l15.753 12.301h108.157V9.364H514.869v12.131L499.368 9.364h-62.333l-7.667 14.569-8.506-14.655h-90.726Z" style="fill:#4b367c"/>
        <path d="M346.23 18.63h-9.351l-22.07 37.154h26.282v-8.26h-10.699l10.699-19.205 15.5 27.465h11.964v-.085h18.697c16.172 0 24.258-6.235 24.258-18.618 0-2.104-.252-4.127-.839-5.979l14.908 24.597h7.162l21.476-37.066h-11.371l-13.39 24.263-14.153-24.263h-12.21l3.363 5.56c-3.956-3.704-9.597-5.56-17.012-5.56h-24.599v30.831L346.23 18.63Zm29.228 8.424h14.062c7.332 0 11.036 3.199 11.036 9.604 0 3.871-1.18 6.654-3.37 8.168-2.104 1.518-6.149 2.278-11.79 2.278h-9.938v-20.05Zm94.597-8.424h-9.44l-21.981 37.151h11.118v-.086h15.167v-8.26h-10.617l10.531-19.119 15.498 27.465h12.131v-.086h6.149V33.288l28.048 22.407h7.24V18.63h-9.682v22.151L495.913 18.63h-7.24v30.831L470.055 18.63Zm69.407 2.104c-1.518 1.347-2.272 3.789-2.272 7.244V46.34c0 3.537.754 5.982 2.272 7.326 1.432 1.351 4.045 2.026 7.834 2.026h21.813c3.789 0 6.487-.672 7.919-2.026 1.433-1.347 2.272-3.789 2.272-7.326v-5.136l-10.692-.174v5.73h-20.722V27.303h20.722v5.051H579.3v-4.379c0-3.622-.839-6.064-2.272-7.244-1.432-1.432-3.956-2.108-7.919-2.108h-21.813c-3.789.007-6.402.679-7.834 2.111Zm54.083 11.623v-5.303h28.887V18.63h-39.585v37.065h40.094v-8.594h-29.396v-6.576h16.927v-8.168h-16.927ZM57.208 11.639c-11.623-4.212-22.826-2.865-33.607 3.789C12.988 21.911 8.353 31.853 9.615 44.823c.337 3.796 1.77 7.247 4.212 10.279 2.442 3.039 5.559 5.221 9.266 6.906 3.789 1.685 7.749 2.357 11.961 2.104 4.635-.252 8.847-1.599 12.973-3.871l.423-.252-1.603 3.537h11.289l7.244-15.753h12.469l2.776 15.753h18.447l9.434-29.484 6.067 29.484h7.326l14.15-32.683 1.432 32.683h10.784l-2.189-52.815h-13.145l-12.294 28.89-5.31-28.89h-10.781L90.648 53.414l-7.162-42.703H70.178L49.79 56.787l2.951-19.29H32.608l-1.517 9.938h8.424l-.843 5.31-8.847.594c-3.536-.925-6.063-2.776-7.748-5.73-1.433-2.783-2.108-5.641-1.77-8.847.423-4.464 2.612-8.509 6.742-12.131 3.704-3.284 8.506-5.136 14.236-5.897 5.474-.842 10.276-.252 14.32 1.515l1.603-10.61Zm19.038 25.858h-6.654l4.631-10.191 2.023 10.191ZM187.69 10.711h-30.073l-8.424 52.818h30.244l1.934-11.207h-19.038l1.518-9.43h16.51l1.77-11.374h-16.68l1.432-9.437h19.037l1.77-11.37Zm133.006 0H308.06l-10.78 17.267-6.739-17.267h-12.469l12.892 27.884-4.045 24.934h10.951l3.284-21.991 19.542-30.827Z" style="fill:#fff"/>
        <path d="M267.714 11.216c-6.149-1.433-11.793 0-17.267 4.212-5.474 4.044-9.014 9.856-10.866 17.182-1.599 7.244-.842 14.068 2.108 20.132 3.117 6.234 7.581 10.023 13.73 11.37 6.064 1.433 11.709 0 17.182-4.123 5.474-4.208 9.096-10.023 10.784-17.352 1.685-7.248.925-13.987-2.104-20.136-3.039-6.146-7.588-9.935-13.567-11.285Zm-.927 10.531c2.95 1.18 4.802 3.875 5.811 7.834 1.01 4.045.761 8.257-.675 12.718-1.429 4.382-3.789 7.667-6.821 9.771-3.117 2.271-6.064 2.698-8.847 1.432-2.947-1.18-4.887-3.877-5.897-7.834-1.095-4.13-.675-8.338.757-12.721 1.429-4.297 3.789-7.663 6.821-9.938 2.954-2.104 5.986-2.609 8.851-1.262Zm-36.053-8.676c-2.107-1.347-4.212-2.022-6.234-2.022h-20.218l-8.338 52.48h24.259c2.612 0 5.31-.839 8.086-2.524a20.525 20.525 0 0 0 6.572-6.323c1.77-2.95 2.442-5.808 2.108-8.846-.338-3.285-2.108-6.402-5.222-9.349 6.149-6.319 7.582-12.298 4.379-18.027a15.756 15.756 0 0 0-5.392-5.389Zm-18.785 18.867 1.685-9.771h7.077c1.77 0 3.117.504 4.045 1.514.76.928 1.094 2.022.924 3.37-.167 1.35-.843 2.441-1.852 3.369-1.18 1.01-2.612 1.518-4.297 1.518h-7.582l12.217 12.465c1.009 1.013 1.514 2.278 1.432 3.711-.082 1.432-.761 2.612-2.022 3.618-1.262 1.013-3.032 1.607-5.474 1.607h-9.519l1.685-10.617h9.096c2.022 0 3.622.593 4.802 1.685l-12.217-12.469Z" style="fill:#fff"/>
    </g>
</svg>
